X: 3318
T: GRIFFIN HORNPIPE
R: Hornpipe.
%R: hornpipe, reel
B: James Kerr "Merry Melodies" v.3 p.35 #318
Z: 2016 John Chambers <jc:trillian.mit.edu>
M: C
L: 1/8
K: D
(uAG) |\
FAd2 d2ef | gec2 c2Ac |\
(dc)dc (df)ed | (cd)Bc (AB)AG |\
FAd2 d2ef | gec2 c2Ac |\
(df)af (bg)ec | d2f2d2 :|
|: (fg) |\
a2fd A2ef | g2ec A2ef |\
(ge)ge (fd)fd | (cd)Bc (AB)AG |\
FAd2 d2ef | gec2 c2Ac |\
(df)af (bg)ec | d2f2d2 :|

%%sep 1 1 500
%%sep 1 1 500

